X: 1
T: Donegal Lass
L: 1/8
M: 6/8
K: Amix
|: "A"Ace aed | cdB A3 | "G"GBd G3 | "D"FAd F3 | 
   "A"Ace aed | cdB A2 a | aed "G"cdB | ABG "A"A3 :|
|: "G"GBd G3 | "D"FAd F3 | "A"e3 ecA | e3 ecA |
   "G"GBd G3 | "D"FAd F2 a | "A"aed "G"cdB | ABG "A"A3 :|

%%newpage
%% header "Pizza Wizards - My Darling Asleep / Star Above The Garter		$P"

